X:1
T:Dr. Robertson's [1] (Indego)
T:Dr. Robertson's [1] (Indego)
T:Alexander Walker
C:Alexander Walker
L:1/8
M:2/2
K:C
V:1 treble 
V:1
 g | e>c c/c/c c2 GE | GcEc dDDf | e>c c/c/c c2 GE | FDGF ECC :| F | EGGc AcGc | ecge fddf | %8
 EGGc AcGE | Fagf eccf | ecGc EcGc FdEc dDDd | ecde cGAE | FEDG ECC || %13

